X:1
T:Petersham, CMD
T:Petersham, CMD
T:Clement William Poole (1828-1924)
T:Public Domain Courtesy of the Cyber Hymnal™
C:Clement William Poole (1828-1924)
Z:Public Domain
Z:Courtesy of the Cyber Hymnal™
%%score ( 1 2 ) ( 3 4 )
L:1/8
Q:1/4=110
M:4/4
K:D
V:1 treble 
V:2 treble 
V:3 bass 
V:4 bass 
V:1
 D2 | [DF]2 [EA]2 [Fd]2 [GB]2 | A3 z G F2 [DF]2 | E2 [CA]2 B2 z x | [CA]6 [EA]2 | %5
 [FA]2 F2 [Fd]2 B2 | A3 z G [DF]2 F2 | [DB]2 (Bc) d2 z x3 | [DB]6 [EA]2 | F3 z E [B,D]2 E2 | %10
 [DF]2 [DG]2 [CA]2 [DA]2 | [CB]3 [DA] [GB]2 [FB]2 | [Ac]6 [EA]2 | d3 z c [GB]2 [FA]2 | %14
 A3 [EG] [DF]2 [DF]2 | [DG]2 [DG]2 [DE]2 [CE]2 x | D6 |] %17
V:2
 D2 | x8 | E2 E2 F2 x3 | E2 E3 B2 D | x8 | x2 F2 (GF) x2 | E2 (C2 x FE) x2 | x2 G2 F3 (c2 E) | x8 | %9
 D2 (C2 x E2) x2 | x8 | x8 | x8 | A2 F2 x5 | E2 D x5 | x9 | D6 |] %17
V:3
 D,2 | [D,F,A,]2 [C,A,]2 [B,,B,D]2 [G,D]2 | [A,D]2 [A,C]2 [D,D]2 [D,A,]2 x | %3
 [C,A,]2 [F,A,]2 [E,A,]2 [E,^G,]2 | A,6 [C,A,]2 | [D,A,]2 F,2 [D,A,]2 G,2 | %6
 [C,A,]2 [A,,A,]2 [D,A,]2 F,2 x | [G,B,]2 [E,B,]2 [F,B,]2 [F,^A,]2 x2 | [B,,B,]6 [C,E,]2 | %9
 [D,A,]2 [A,,G,]2 [B,,F,]2 [C,A,]2 x | [D,A,]2 [B,,G,]2 [A,,E,]2 [F,A,]2 | %11
 [E,G,]3 [F,A,] [G,D]2 [B,D]2 | [A,D]6 [G,C]2 | [F,D]2 [D,D]2 [G,D]2 [D,D]2 x | %14
 [A,,C]2 A,2 [D,A,]2 B,2 | [G,B,]2 [E,B,]2 A,3 z G, | [D,F,]6 |] %17
V:4
 D,2 | x8 | x9 | x8 | A,6 x2 | x2 (F,E,) x (E,D,) x | x6 F,2 x | x10 | x8 | x9 | x8 | x8 | x8 | %13
 x9 | x2 (B,,C,) x B,2 x | x4 A,2 A,,2 x | x6 |] %17

